X:152
T:Muireann's Jig
R:jig
C:Niall Vallely
Z:transcribed by Carole Berger
M:6/8
K:Bdor
|: dBA B3 | def ede | f2e ede | faf efe |
 dBA BAB | def ede | fba fed | fee edB :|
|: BAB e3 | BAB fef | Bba fed | fee edB |
 BAB e2B |BAB fef | baf aba | fee edB :|
|: BAF E2F | FDE FDE | FAA ABB | Bdd edB |
 BAF E2F | FDE FDE | FAB def | fed edB :|
|: fef b2f | fef a3 | fba fed | fee ede |
 fef b2f | fef a3 | baf aba | fee ede :|
